check-ins/station-options.svg

<svg xmlns="http://www.w3.org/2000/svg" viewBox="0 0 16 16"><defs><style>.cls-1{fill:#231f20}</style></defs><title>station-options</title><g id="Layer_1" data-name="Layer 1"><path class="cls-1" d="M13.812 3.826h-6.2A1.03 1.03 0 0 1 6.6 2.774a1.03 1.03 0 0 1 1.011-1.051h6.2a1.03 1.03 0 0 1 1.007 1.052 1.03 1.03 0 0 1-1.006 1.051zm-10.091.319H2.187a1.03 1.03 0 0 1-1.006-1.052v-.687a1.03 1.03 0 0 1 1.006-1.051h1.534a1.03 1.03 0 0 1 1.006 1.051v.687a1.03 1.03 0 0 1-1.006 1.052zm10.091 4.906h-6.2a1.052 1.052 0 0 1 0-2.1h6.2a1.052 1.052 0 0 1 0 2.1zM3.721 9.4H2.187a1.03 1.03 0 0 1-1.006-1.056v-.688a1.03 1.03 0 0 1 1.006-1.051h1.534a1.03 1.03 0 0 1 1.006 1.051v.687A1.03 1.03 0 0 1 3.721 9.4zm10.091 4.9h-6.2a1.052 1.052 0 0 1 0-2.1h6.2a1.052 1.052 0 0 1 0 2.1zm-10.091.345H2.187a1.03 1.03 0 0 1-1.006-1.051v-.687a1.03 1.03 0 0 1 1.006-1.052h1.534a1.03 1.03 0 0 1 1.006 1.052v.687a1.03 1.03 0 0 1-1.006 1.051z" id="Your_Icon" data-name="Your Icon"/></g></svg>

<svg xmlns="http://www.w3.org/2000/svg" viewBox="0 0 16 16"><defs><style>.cls-1{fill:#231f20;}</style></defs><title>station-options</title><g id="Layer_1" data-name="Layer 1"><g id="Your_Icon" data-name="Your Icon"><path class="cls-1" d="M13.812,3.826h-6.2A1.03,1.03,0,0,1,6.6,2.774,1.03,1.03,0,0,1,7.611,1.723h6.2a1.03,1.03,0,0,1,1.007,1.052A1.03,1.03,0,0,1,13.812,3.826Z"/><path class="cls-1" d="M3.721,4.145H2.187A1.03,1.03,0,0,1,1.181,3.093V2.406A1.03,1.03,0,0,1,2.187,1.355H3.721A1.03,1.03,0,0,1,4.727,2.406v.687A1.03,1.03,0,0,1,3.721,4.145Z"/><path class="cls-1" d="M13.812,9.051h-6.2a1.052,1.052,0,0,1,0-2.1h6.2a1.052,1.052,0,0,1,0,2.1Z"/><path class="cls-1" d="M3.721,9.4H2.187A1.03,1.03,0,0,1,1.181,8.344V7.656A1.03,1.03,0,0,1,2.187,6.605H3.721A1.03,1.03,0,0,1,4.727,7.656v.687A1.03,1.03,0,0,1,3.721,9.4Z"/><path class="cls-1" d="M13.812,14.3h-6.2a1.052,1.052,0,0,1,0-2.1h6.2a1.052,1.052,0,0,1,0,2.1Z"/><path class="cls-1" d="M3.721,14.645H2.187a1.03,1.03,0,0,1-1.006-1.051v-.687a1.03,1.03,0,0,1,1.006-1.052H3.721a1.03,1.03,0,0,1,1.006,1.052v.687A1.03,1.03,0,0,1,3.721,14.645Z"/></g></g></svg>
